X:121
T:Pinks and Lilies. PFD3.121
B:Playford, Dancing Master Vol 3, 2nd Ed, c1726
Z:village music project, Steve Mansfield 2015
M:C|
L:1/4
W:Longways for as many as will
W:The first Man cast off below the second Man, and take Hands and fall down
W:between the third Couple, the Woman follows her Partner, and slips
W:between the second Couple |: The first Man being between the third Couple, all
W:three take Hands and go quite round; the first Woman being between the
W:second Couple does the same at the same time; the first Man being
W:between the third Couple Hands quite round, the Women do the same at
W:the same time; 'till then he come in the middle and meets his Partner
W:between the second and third Couple and turn her; the first Man does the same
W:between the second Couple as before.
N:Repeats added to match dance instructions
Q:2/4=90
K:C
c/d/ | ee dc | ag zf/e/ | de B>c | d3 :| B/c/ |dd dd | ed ze/f/ | gc cc |
a3 g/f/ |e/f/g/a/ d2 | c3 e/f/ | gc cc | a3 g/f/ |e/f/g/a/ d2 | c3 |]

